X:1
T:German dance
T:Joseph Haydn
L:1/8
Q:1/4=132
M:3/4
K:C
V:1 treble nm="Flute" snm="Fl."
V:1
|:!f!"^Allegro moderato" (ef | g2) g2 (ef | g2) g2 c'2 | (bc'd'c'ba | g2) g2 (ude | f2) f2 (ag | %6
 f2) f2 uf2 | (efgfed | c2) uc2 ::!p! e2 | (efed'c'b | a2) a2 ud2 | (dedc'ba | g2) g2 uc2 | %14
!f! (cdc_bag) | (a=bc'agf) | (egecdB) | c2 uc2 :|!f! G2 | (c2 B2 c2 | d4){fa} .a2 | uG4{de} .f2 | %22
 EGFA G2 | (uc2 B2 c2 | d4){fg} .a2 | uG4{Bc} .d2 | uc4 :|!p! e2 | (f2 e2 f2 | d4){BA} G2 | %30
 (ug2 ^f2 g2 | e4)!f! uG2 | (c2 B2 c2 | d4){fg} .a2 | uG4{Bc} .d2 | uc4!D.C.! :| %36

